!!!OTL: Canso Strait
!!!ONM: 107.
**kern
*clefG2
*k[b-]
*F:
*M3/4
*MM80
{8c
=1
8f
8g
4.a
8a
=2
8cc
8a
4.g}
{8g
=3
8g
8g
4.e
8c
=4
8d
8d
4.c}
{8c
=5
8f
8g
4.a
8a
=6
8cc
8a
4.g}
{8g
=7
8g
8g
4.e
16c
16c
=8
8g
8a
4.f}
==
*-
!!!CNT: Folksongs of Maritime Canada
!!!MRD: 1928///-1932///
!!!OCL: Helen Creighton
!!!YOR: Songs and Ballads from Nova Scotia
!!!PPR: J.M. Dent & Sons, Limited
!!!PPP: Toronto, Canada
!!!PDT: 1932///
!!!reprint: Dover Publications, 1992: ISBN 0-486-21703-5
!!!ENC1: Craig Stuart Sapp (music and bibliographic data)                       
!!!ENC2: Marcus Pearce (phrase markings and key designations)                   
!!!ENC3: Darrell Conklin (phrase markings and key designations)   
!!!END: 2002/04/10/
!!!EEV: 2004/06/05
!!!MPN: Mr. Charles Harlan and Mr. Frank Faulkner
!!!PPG: 230
!!!EFL: 108/152
!!!ARE: Canada; Nova Scotia
!!!verses: 9
!!!VTS: 1549122949
